images/content/semiregular-convex-uniform/decagonal-prism.svg

<?xml version="1.0" encoding="UTF-8"?>
<svg xmlns="http://www.w3.org/2000/svg" xmlns:xlink="http://www.w3.org/1999/xlink" width="263.13pt" height="199.94pt" viewBox="0 0 263.13 199.94" version="1.2">
<g id="surface1">
<path style="fill-rule:nonzero;fill:rgb(72.459412%,48.608398%,56.639099%);fill-opacity:1;stroke-width:5;stroke-linecap:round;stroke-linejoin:round;stroke:rgb(0%,0%,0%);stroke-opacity:1;stroke-miterlimit:10;" d="M 1007.735007 1792.808391 L 1526.044636 1827.532197 L 1519.186096 1395.679358 " transform="matrix(0.0996705,0,0,-0.0996705,0,199.580652)"/>
<path style="fill-rule:nonzero;fill:rgb(72.459412%,48.608398%,56.639099%);fill-opacity:1;stroke-width:5;stroke-linecap:round;stroke-linejoin:round;stroke:rgb(0%,0%,0%);stroke-opacity:1;stroke-miterlimit:10;" d="M 1519.186096 1395.679358 L 1024.39146 1358.99597 L 1007.735007 1792.808391 " transform="matrix(0.0996705,0,0,-0.0996705,0,199.580652)"/>
<path style="fill-rule:nonzero;fill:rgb(57.226562%,36.497498%,56.054688%);fill-opacity:1;stroke-width:5;stroke-linecap:round;stroke-linejoin:round;stroke:rgb(0%,0%,0%);stroke-opacity:1;stroke-miterlimit:10;" d="M 1973.143028 1259.801893 L 1519.186096 1395.679358 L 1526.044636 1827.532197 " transform="matrix(0.0996705,0,0,-0.0996705,0,199.580652)"/>
<path style=" stroke:none;fill-rule:nonzero;fill:rgb(66.209412%,74.414062%,91.014099%);fill-opacity:1;" d="M 151.417969 60.472656 L 102.101562 64.128906 L 219.285156 136.765625 "/>
<path style="fill:none;stroke-width:5;stroke-linecap:round;stroke-linejoin:round;stroke:rgb(0%,0%,0%);stroke-opacity:1;stroke-miterlimit:10;" d="M 1519.186096 1395.679358 L 1024.39146 1358.99597 " transform="matrix(0.0996705,0,0,-0.0996705,0,199.580652)"/>
<path style=" stroke:none;fill-rule:nonzero;fill:rgb(66.209412%,74.414062%,91.014099%);fill-opacity:1;" d="M 196.664062 74.015625 L 151.417969 60.472656 L 219.285156 136.765625 "/>
<path style="fill:none;stroke-width:5;stroke-linecap:round;stroke-linejoin:round;stroke:rgb(0%,0%,0%);stroke-opacity:1;stroke-miterlimit:10;" d="M 1973.143028 1259.801893 L 1519.186096 1395.679358 " transform="matrix(0.0996705,0,0,-0.0996705,0,199.580652)"/>
<path style="fill-rule:nonzero;fill:rgb(86.131287%,60.546875%,55.271912%);fill-opacity:1;stroke-width:5;stroke-linecap:round;stroke-linejoin:round;stroke:rgb(0%,0%,0%);stroke-opacity:1;stroke-miterlimit:10;" d="M 592.773772 1600.455752 L 1007.735007 1792.808391 L 1024.39146 1358.99597 " transform="matrix(0.0996705,0,0,-0.0996705,0,199.580652)"/>
<path style="fill-rule:nonzero;fill:rgb(86.131287%,60.546875%,55.271912%);fill-opacity:1;stroke-width:5;stroke-linecap:round;stroke-linejoin:round;stroke:rgb(0%,0%,0%);stroke-opacity:1;stroke-miterlimit:10;" d="M 1024.39146 1358.99597 L 629.966651 1156.375117 L 592.773772 1600.455752 " transform="matrix(0.0996705,0,0,-0.0996705,0,199.580652)"/>
<path style=" stroke:none;fill-rule:nonzero;fill:rgb(66.209412%,74.414062%,91.014099%);fill-opacity:1;" d="M 102.101562 64.128906 L 62.789062 84.324219 L 219.285156 136.765625 "/>
<path style="fill:none;stroke-width:5;stroke-linecap:round;stroke-linejoin:round;stroke:rgb(0%,0%,0%);stroke-opacity:1;stroke-miterlimit:10;" d="M 1024.39146 1358.99597 L 629.966651 1156.375117 " transform="matrix(0.0996705,0,0,-0.0996705,0,199.580652)"/>
<path style="fill-rule:nonzero;fill:rgb(57.226562%,36.497498%,56.054688%);fill-opacity:1;stroke-width:5;stroke-linecap:round;stroke-linejoin:round;stroke:rgb(0%,0%,0%);stroke-opacity:1;stroke-miterlimit:10;" d="M 1526.044636 1827.532197 L 2002.419194 1698.748421 L 1973.143028 1259.801893 " transform="matrix(0.0996705,0,0,-0.0996705,0,199.580652)"/>
<path style="fill-rule:nonzero;fill:rgb(27.392578%,14.501953%,51.756287%);fill-opacity:1;stroke-width:5;stroke-linecap:round;stroke-linejoin:round;stroke:rgb(0%,0%,0%);stroke-opacity:1;stroke-miterlimit:10;" d="M 2243.565443 978.562581 L 1973.143028 1259.801893 L 2002.419194 1698.748421 " transform="matrix(0.0996705,0,0,-0.0996705,0,199.580652)"/>
<path style="fill-rule:nonzero;fill:rgb(66.209412%,74.414062%,91.014099%);fill-opacity:1;stroke-width:5;stroke-linecap:round;stroke-linejoin:round;stroke:rgb(0%,0%,0%);stroke-opacity:1;stroke-miterlimit:10;" d="M 2200.101898 630.227158 L 2243.565443 978.562581 L 1973.143028 1259.801893 " transform="matrix(0.0996705,0,0,-0.0996705,0,199.580652)"/>
<path style="fill-rule:nonzero;fill:rgb(27.392578%,14.501953%,51.756287%);fill-opacity:1;stroke-width:5;stroke-linecap:round;stroke-linejoin:round;stroke:rgb(0%,0%,0%);stroke-opacity:1;stroke-miterlimit:10;" d="M 2002.419194 1698.748421 L 2288.792612 1430.951847 L 2243.565443 978.562581 " transform="matrix(0.0996705,0,0,-0.0996705,0,199.580652)"/>
<path style=" stroke:none;fill-rule:nonzero;fill:rgb(64.84375%,75.976562%,93.164062%);fill-opacity:1;" d="M 152.101562 17.429688 L 100.441406 20.890625 L 223.882812 90.234375 "/>
<path style="fill:none;stroke-width:5;stroke-linecap:round;stroke-linejoin:round;stroke:rgb(0%,0%,0%);stroke-opacity:1;stroke-miterlimit:10;" d="M 1526.044636 1827.532197 L 1007.735007 1792.808391 " transform="matrix(0.0996705,0,0,-0.0996705,0,199.580652)"/>
<path style=" stroke:none;fill-rule:nonzero;fill:rgb(64.84375%,75.976562%,93.164062%);fill-opacity:1;" d="M 199.582031 30.265625 L 152.101562 17.429688 L 223.882812 90.234375 "/>
<path style="fill:none;stroke-width:5;stroke-linecap:round;stroke-linejoin:round;stroke:rgb(0%,0%,0%);stroke-opacity:1;stroke-miterlimit:10;" d="M 2002.419194 1698.748421 L 1526.044636 1827.532197 " transform="matrix(0.0996705,0,0,-0.0996705,0,199.580652)"/>
<path style="fill-rule:nonzero;fill:rgb(99.609375%,76.951599%,43.406677%);fill-opacity:1;stroke-width:5;stroke-linecap:round;stroke-linejoin:round;stroke:rgb(0%,0%,0%);stroke-opacity:1;stroke-miterlimit:10;" d="M 429.971639 1292.409349 L 592.773772 1600.455752 L 629.966651 1156.375117 " transform="matrix(0.0996705,0,0,-0.0996705,0,199.580652)"/>
<path style="fill-rule:nonzero;fill:rgb(99.609375%,76.951599%,43.406677%);fill-opacity:1;stroke-width:5;stroke-linecap:round;stroke-linejoin:round;stroke:rgb(0%,0%,0%);stroke-opacity:1;stroke-miterlimit:10;" d="M 629.966651 1156.375117 L 477.981416 833.631844 L 429.971639 1292.409349 " transform="matrix(0.0996705,0,0,-0.0996705,0,199.580652)"/>
<path style=" stroke:none;fill-rule:nonzero;fill:rgb(66.209412%,74.414062%,91.014099%);fill-opacity:1;" d="M 62.789062 84.324219 L 47.640625 116.492188 L 219.285156 136.765625 "/>
<path style="fill:none;stroke-width:5;stroke-linecap:round;stroke-linejoin:round;stroke:rgb(0%,0%,0%);stroke-opacity:1;stroke-miterlimit:10;" d="M 629.966651 1156.375117 L 477.981416 833.631844 " transform="matrix(0.0996705,0,0,-0.0996705,0,199.580652)"/>
<path style=" stroke:none;fill-rule:nonzero;fill:rgb(64.84375%,75.976562%,93.164062%);fill-opacity:1;" d="M 100.441406 20.890625 L 59.082031 40.0625 L 223.882812 90.234375 "/>
<path style="fill:none;stroke-width:5;stroke-linecap:round;stroke-linejoin:round;stroke:rgb(0%,0%,0%);stroke-opacity:1;stroke-miterlimit:10;" d="M 1007.735007 1792.808391 L 592.773772 1600.455752 " transform="matrix(0.0996705,0,0,-0.0996705,0,199.580652)"/>
<path style="fill-rule:nonzero;fill:rgb(64.84375%,75.976562%,93.164062%);fill-opacity:1;stroke-width:5;stroke-linecap:round;stroke-linejoin:round;stroke:rgb(0%,0%,0%);stroke-opacity:1;stroke-miterlimit:10;" d="M 2246.230475 1097.078144 L 2288.792612 1430.951847 L 2002.419194 1698.748421 " transform="matrix(0.0996705,0,0,-0.0996705,0,199.580652)"/>
<path style="fill-rule:nonzero;fill:rgb(73.242188%,53.514099%,0%);fill-opacity:1;stroke-width:5;stroke-linecap:round;stroke-linejoin:round;stroke:rgb(0%,0%,0%);stroke-opacity:1;stroke-miterlimit:10;" d="M 2200.101898 630.227158 L 2243.565443 978.562581 L 2288.792612 1430.951847 " transform="matrix(0.0996705,0,0,-0.0996705,0,199.580652)"/>
<path style=" stroke:none;fill-rule:nonzero;fill:rgb(64.84375%,75.976562%,93.164062%);fill-opacity:1;" d="M 59.082031 40.0625 L 42.855469 70.765625 L 223.882812 90.234375 "/>
<path style="fill:none;stroke-width:5;stroke-linecap:round;stroke-linejoin:round;stroke:rgb(0%,0%,0%);stroke-opacity:1;stroke-miterlimit:10;" d="M 592.773772 1600.455752 L 429.971639 1292.409349 " transform="matrix(0.0996705,0,0,-0.0996705,0,199.580652)"/>
<path style="fill-rule:nonzero;fill:rgb(10.496521%,10.496521%,38.597107%);fill-opacity:1;stroke-width:5;stroke-linecap:round;stroke-linejoin:round;stroke:rgb(0%,0%,0%);stroke-opacity:1;stroke-miterlimit:10;" d="M 635.061567 968.059218 L 429.971639 1292.409349 L 477.981416 833.631844 " transform="matrix(0.0996705,0,0,-0.0996705,0,199.580652)"/>
<path style=" stroke:none;fill-rule:nonzero;fill:rgb(66.209412%,74.414062%,91.014099%);fill-opacity:1;" d="M 47.640625 116.492188 L 67.289062 150.117188 L 219.285156 136.765625 "/>
<path style="fill:none;stroke-width:5;stroke-linecap:round;stroke-linejoin:round;stroke:rgb(0%,0%,0%);stroke-opacity:1;stroke-miterlimit:10;" d="M 477.981416 833.631844 L 675.115437 496.270083 " transform="matrix(0.0996705,0,0,-0.0996705,0,199.580652)"/>
<path style="fill-rule:nonzero;fill:rgb(10.496521%,10.496521%,38.597107%);fill-opacity:1;stroke-width:5;stroke-linecap:round;stroke-linejoin:round;stroke:rgb(0%,0%,0%);stroke-opacity:1;stroke-miterlimit:10;" d="M 477.981416 833.631844 L 675.115437 496.270083 L 635.061567 968.059218 " transform="matrix(0.0996705,0,0,-0.0996705,0,199.580652)"/>
<path style="fill-rule:nonzero;fill:rgb(73.242188%,53.514099%,0%);fill-opacity:1;stroke-width:5;stroke-linecap:round;stroke-linejoin:round;stroke:rgb(0%,0%,0%);stroke-opacity:1;stroke-miterlimit:10;" d="M 2288.792612 1430.951847 L 2246.230475 1097.078144 L 2200.101898 630.227158 " transform="matrix(0.0996705,0,0,-0.0996705,0,199.580652)"/>
<path style="fill-rule:nonzero;fill:rgb(66.209412%,74.414062%,91.014099%);fill-opacity:1;stroke-width:5;stroke-linecap:round;stroke-linejoin:round;stroke:rgb(0%,0%,0%);stroke-opacity:1;stroke-miterlimit:10;" d="M 1192.562849 299.33202 L 1800.347024 355.101744 L 2200.101898 630.227158 " transform="matrix(0.0996705,0,0,-0.0996705,0,199.580652)"/>
<path style=" stroke:none;fill-rule:nonzero;fill:rgb(66.209412%,74.414062%,91.014099%);fill-opacity:1;" d="M 67.289062 150.117188 L 118.863281 169.746094 L 219.285156 136.765625 "/>
<path style="fill:none;stroke-width:5;stroke-linecap:round;stroke-linejoin:round;stroke:rgb(0%,0%,0%);stroke-opacity:1;stroke-miterlimit:10;" d="M 675.115437 496.270083 L 1192.562849 299.33202 " transform="matrix(0.0996705,0,0,-0.0996705,0,199.580652)"/>
<path style="fill-rule:nonzero;fill:rgb(90.625%,59.764099%,44.897461%);fill-opacity:1;stroke-width:5;stroke-linecap:round;stroke-linejoin:round;stroke:rgb(0%,0%,0%);stroke-opacity:1;stroke-miterlimit:10;" d="M 1800.347024 355.101744 L 2200.101898 630.227158 L 2246.230475 1097.078144 " transform="matrix(0.0996705,0,0,-0.0996705,0,199.580652)"/>
<path style=" stroke:none;fill-rule:nonzero;fill:rgb(64.84375%,75.976562%,93.164062%);fill-opacity:1;" d="M 42.855469 70.765625 L 63.296875 103.09375 L 223.882812 90.234375 "/>
<path style="fill:none;stroke-width:5;stroke-linecap:round;stroke-linejoin:round;stroke:rgb(0%,0%,0%);stroke-opacity:1;stroke-miterlimit:10;" d="M 429.971639 1292.409349 L 635.061567 968.059218 " transform="matrix(0.0996705,0,0,-0.0996705,0,199.580652)"/>
<path style="fill-rule:nonzero;fill:rgb(50.193787%,26.489258%,48.706055%);fill-opacity:1;stroke-width:5;stroke-linecap:round;stroke-linejoin:round;stroke:rgb(0%,0%,0%);stroke-opacity:1;stroke-miterlimit:10;" d="M 1181.745953 777.62697 L 635.061567 968.059218 L 675.115437 496.270083 " transform="matrix(0.0996705,0,0,-0.0996705,0,199.580652)"/>
<path style="fill-rule:nonzero;fill:rgb(50.193787%,26.489258%,48.706055%);fill-opacity:1;stroke-width:5;stroke-linecap:round;stroke-linejoin:round;stroke:rgb(0%,0%,0%);stroke-opacity:1;stroke-miterlimit:10;" d="M 675.115437 496.270083 L 1192.562849 299.33202 L 1181.745953 777.62697 " transform="matrix(0.0996705,0,0,-0.0996705,0,199.580652)"/>
<path style="fill-rule:nonzero;fill:rgb(90.625%,59.764099%,44.897461%);fill-opacity:1;stroke-width:5;stroke-linecap:round;stroke-linejoin:round;stroke:rgb(0%,0%,0%);stroke-opacity:1;stroke-miterlimit:10;" d="M 2246.230475 1097.078144 L 1825.508066 831.672261 L 1800.347024 355.101744 " transform="matrix(0.0996705,0,0,-0.0996705,0,199.580652)"/>
<path style="fill-rule:nonzero;fill:rgb(72.264099%,44.50531%,50.584412%);fill-opacity:1;stroke-width:5;stroke-linecap:round;stroke-linejoin:round;stroke:rgb(0%,0%,0%);stroke-opacity:1;stroke-miterlimit:10;" d="M 1192.562849 299.33202 L 1800.347024 355.101744 L 1825.508066 831.672261 " transform="matrix(0.0996705,0,0,-0.0996705,0,199.580652)"/>
<path style="fill-rule:nonzero;fill:rgb(64.84375%,75.976562%,93.164062%);fill-opacity:1;stroke-width:5;stroke-linecap:round;stroke-linejoin:round;stroke:rgb(0%,0%,0%);stroke-opacity:1;stroke-miterlimit:10;" d="M 1181.745953 777.62697 L 1825.508066 831.672261 L 2246.230475 1097.078144 " transform="matrix(0.0996705,0,0,-0.0996705,0,199.580652)"/>
<path style=" stroke:none;fill-rule:nonzero;fill:rgb(64.84375%,75.976562%,93.164062%);fill-opacity:1;" d="M 63.296875 103.09375 L 117.785156 122.074219 L 223.882812 90.234375 "/>
<path style="fill:none;stroke-width:5;stroke-linecap:round;stroke-linejoin:round;stroke:rgb(0%,0%,0%);stroke-opacity:1;stroke-miterlimit:10;" d="M 635.061567 968.059218 L 1181.745953 777.62697 " transform="matrix(0.0996705,0,0,-0.0996705,0,199.580652)"/>
<path style="fill-rule:nonzero;fill:rgb(72.264099%,44.50531%,50.584412%);fill-opacity:1;stroke-width:5;stroke-linecap:round;stroke-linejoin:round;stroke:rgb(0%,0%,0%);stroke-opacity:1;stroke-miterlimit:10;" d="M 1825.508066 831.672261 L 1181.745953 777.62697 L 1192.562849 299.33202 " transform="matrix(0.0996705,0,0,-0.0996705,0,199.580652)"/>
</g>
</svg>

<svg xmlns="http://www.w3.org/2000/svg" width="350.84" height="266.587" viewBox="0 0 263.13 199.94" version="1.2"><path style="fill-rule:nonzero;fill:#b97c90;fill-opacity:1;stroke-width:5;stroke-linecap:round;stroke-linejoin:round;stroke:#000;stroke-opacity:1;stroke-miterlimit:10" d="m1007.735 1792.808 518.31 34.724-6.859-431.853" transform="matrix(.09967 0 0 -.09967 0 199.58)"/><path style="fill-rule:nonzero;fill:#b97c90;fill-opacity:1;stroke-width:5;stroke-linecap:round;stroke-linejoin:round;stroke:#000;stroke-opacity:1;stroke-miterlimit:10" d="m1519.186 1395.68-494.795-36.684-16.656 433.812" transform="matrix(.09967 0 0 -.09967 0 199.58)"/><path style="fill-rule:nonzero;fill:#925d8f;fill-opacity:1;stroke-width:5;stroke-linecap:round;stroke-linejoin:round;stroke:#000;stroke-opacity:1;stroke-miterlimit:10" d="m1973.143 1259.802-453.957 135.877 6.859 431.853" transform="matrix(.09967 0 0 -.09967 0 199.58)"/><path style="stroke:none;fill-rule:nonzero;fill:#a9bee8;fill-opacity:1" d="m151.418 60.473-49.316 3.656 117.183 72.637"/><path style="fill:none;stroke-width:5;stroke-linecap:round;stroke-linejoin:round;stroke:#000;stroke-opacity:1;stroke-miterlimit:10" d="m1519.186 1395.68-494.795-36.684" transform="matrix(.09967 0 0 -.09967 0 199.58)"/><path style="stroke:none;fill-rule:nonzero;fill:#a9bee8;fill-opacity:1" d="m196.664 74.016-45.246-13.543 67.867 76.293"/><path style="fill:none;stroke-width:5;stroke-linecap:round;stroke-linejoin:round;stroke:#000;stroke-opacity:1;stroke-miterlimit:10" d="m1973.143 1259.802-453.957 135.877" transform="matrix(.09967 0 0 -.09967 0 199.58)"/><path style="fill-rule:nonzero;fill:#dc9a8d;fill-opacity:1;stroke-width:5;stroke-linecap:round;stroke-linejoin:round;stroke:#000;stroke-opacity:1;stroke-miterlimit:10" d="m592.774 1600.456 414.961 192.352 16.656-433.812" transform="matrix(.09967 0 0 -.09967 0 199.58)"/><path style="fill-rule:nonzero;fill:#dc9a8d;fill-opacity:1;stroke-width:5;stroke-linecap:round;stroke-linejoin:round;stroke:#000;stroke-opacity:1;stroke-miterlimit:10" d="m1024.391 1358.996-394.424-202.62-37.193 444.08" transform="matrix(.09967 0 0 -.09967 0 199.58)"/><path style="stroke:none;fill-rule:nonzero;fill:#a9bee8;fill-opacity:1" d="M102.102 64.129 62.789 84.324l156.496 52.442"/><path style="fill:none;stroke-width:5;stroke-linecap:round;stroke-linejoin:round;stroke:#000;stroke-opacity:1;stroke-miterlimit:10" d="m1024.391 1358.996-394.424-202.62" transform="matrix(.09967 0 0 -.09967 0 199.58)"/><path style="fill-rule:nonzero;fill:#925d8f;fill-opacity:1;stroke-width:5;stroke-linecap:round;stroke-linejoin:round;stroke:#000;stroke-opacity:1;stroke-miterlimit:10" d="m1526.045 1827.532 476.374-128.784-29.276-438.946" transform="matrix(.09967 0 0 -.09967 0 199.58)"/><path style="fill-rule:nonzero;fill:#462584;fill-opacity:1;stroke-width:5;stroke-linecap:round;stroke-linejoin:round;stroke:#000;stroke-opacity:1;stroke-miterlimit:10" d="m2243.565 978.563-270.422 281.239 29.276 438.946" transform="matrix(.09967 0 0 -.09967 0 199.58)"/><path style="fill-rule:nonzero;fill:#a9bee8;fill-opacity:1;stroke-width:5;stroke-linecap:round;stroke-linejoin:round;stroke:#000;stroke-opacity:1;stroke-miterlimit:10" d="m2200.102 630.227 43.463 348.336-270.422 281.239" transform="matrix(.09967 0 0 -.09967 0 199.58)"/><path style="fill-rule:nonzero;fill:#462584;fill-opacity:1;stroke-width:5;stroke-linecap:round;stroke-linejoin:round;stroke:#000;stroke-opacity:1;stroke-miterlimit:10" d="m2002.42 1698.748 286.373-267.796-45.228-452.39" transform="matrix(.09967 0 0 -.09967 0 199.58)"/><path style="stroke:none;fill-rule:nonzero;fill:#a5c2ee;fill-opacity:1" d="m152.102 17.43-51.66 3.46 123.44 69.344"/><path style="fill:none;stroke-width:5;stroke-linecap:round;stroke-linejoin:round;stroke:#000;stroke-opacity:1;stroke-miterlimit:10" d="m1526.045 1827.532-518.31-34.724" transform="matrix(.09967 0 0 -.09967 0 199.58)"/><path style="stroke:none;fill-rule:nonzero;fill:#a5c2ee;fill-opacity:1" d="m199.582 30.266-47.48-12.836 71.78 72.804"/><path style="fill:none;stroke-width:5;stroke-linecap:round;stroke-linejoin:round;stroke:#000;stroke-opacity:1;stroke-miterlimit:10" d="m2002.42 1698.748-476.375 128.784" transform="matrix(.09967 0 0 -.09967 0 199.58)"/><path style="fill-rule:nonzero;fill:#fec46f;fill-opacity:1;stroke-width:5;stroke-linecap:round;stroke-linejoin:round;stroke:#000;stroke-opacity:1;stroke-miterlimit:10" d="m429.972 1292.41 162.802 308.046 37.193-444.08M629.967 1156.375 477.98 833.632l-48.01 458.777" transform="matrix(.09967 0 0 -.09967 0 199.58)"/><path style="stroke:none;fill-rule:nonzero;fill:#a9bee8;fill-opacity:1" d="m62.79 84.324-15.15 32.168 171.645 20.274"/><path style="fill:none;stroke-width:5;stroke-linecap:round;stroke-linejoin:round;stroke:#000;stroke-opacity:1;stroke-miterlimit:10" d="M629.967 1156.375 477.98 833.632" transform="matrix(.09967 0 0 -.09967 0 199.58)"/><path style="stroke:none;fill-rule:nonzero;fill:#a5c2ee;fill-opacity:1" d="M100.441 20.89 59.082 40.063l164.8 50.172"/><path style="fill:none;stroke-width:5;stroke-linecap:round;stroke-linejoin:round;stroke:#000;stroke-opacity:1;stroke-miterlimit:10" d="m1007.735 1792.808-414.961-192.352" transform="matrix(.09967 0 0 -.09967 0 199.58)"/><path style="fill-rule:nonzero;fill:#a5c2ee;fill-opacity:1;stroke-width:5;stroke-linecap:round;stroke-linejoin:round;stroke:#000;stroke-opacity:1;stroke-miterlimit:10" d="m2246.23 1097.078 42.563 333.874-286.374 267.796" transform="matrix(.09967 0 0 -.09967 0 199.58)"/><path style="fill-rule:nonzero;fill:#b80;fill-opacity:1;stroke-width:5;stroke-linecap:round;stroke-linejoin:round;stroke:#000;stroke-opacity:1;stroke-miterlimit:10" d="m2200.102 630.227 43.463 348.336 45.228 452.389" transform="matrix(.09967 0 0 -.09967 0 199.58)"/><path style="stroke:none;fill-rule:nonzero;fill:#a5c2ee;fill-opacity:1" d="M59.082 40.063 42.855 70.766l181.028 19.468"/><path style="fill:none;stroke-width:5;stroke-linecap:round;stroke-linejoin:round;stroke:#000;stroke-opacity:1;stroke-miterlimit:10" d="m592.774 1600.456-162.802-308.047" transform="matrix(.09967 0 0 -.09967 0 199.58)"/><path style="fill-rule:nonzero;fill:#1b1b62;fill-opacity:1;stroke-width:5;stroke-linecap:round;stroke-linejoin:round;stroke:#000;stroke-opacity:1;stroke-miterlimit:10" d="m635.062 968.06-205.09 324.35 48.01-458.778" transform="matrix(.09967 0 0 -.09967 0 199.58)"/><path style="stroke:none;fill-rule:nonzero;fill:#a9bee8;fill-opacity:1" d="m47.64 116.492 19.65 33.625 151.995-13.351"/><path style="fill:none;stroke-width:5;stroke-linecap:round;stroke-linejoin:round;stroke:#000;stroke-opacity:1;stroke-miterlimit:10" d="M477.981 833.632 675.115 496.27" transform="matrix(.09967 0 0 -.09967 0 199.58)"/><path style="fill-rule:nonzero;fill:#1b1b62;fill-opacity:1;stroke-width:5;stroke-linecap:round;stroke-linejoin:round;stroke:#000;stroke-opacity:1;stroke-miterlimit:10" d="M477.981 833.632 675.115 496.27l-40.053 471.79" transform="matrix(.09967 0 0 -.09967 0 199.58)"/><path style="fill-rule:nonzero;fill:#b80;fill-opacity:1;stroke-width:5;stroke-linecap:round;stroke-linejoin:round;stroke:#000;stroke-opacity:1;stroke-miterlimit:10" d="m2288.793 1430.952-42.563-333.874-46.128-466.85" transform="matrix(.09967 0 0 -.09967 0 199.58)"/><path style="fill-rule:nonzero;fill:#a9bee8;fill-opacity:1;stroke-width:5;stroke-linecap:round;stroke-linejoin:round;stroke:#000;stroke-opacity:1;stroke-miterlimit:10" d="m1192.563 299.332 607.784 55.77 399.755 275.125" transform="matrix(.09967 0 0 -.09967 0 199.58)"/><path style="stroke:none;fill-rule:nonzero;fill:#a9bee8;fill-opacity:1" d="m67.29 150.117 51.573 19.63 100.422-32.981"/><path style="fill:none;stroke-width:5;stroke-linecap:round;stroke-linejoin:round;stroke:#000;stroke-opacity:1;stroke-miterlimit:10" d="m675.115 496.27 517.448-196.938" transform="matrix(.09967 0 0 -.09967 0 199.58)"/><path style="fill-rule:nonzero;fill:#e79872;fill-opacity:1;stroke-width:5;stroke-linecap:round;stroke-linejoin:round;stroke:#000;stroke-opacity:1;stroke-miterlimit:10" d="m1800.347 355.102 399.755 275.125 46.128 466.851" transform="matrix(.09967 0 0 -.09967 0 199.58)"/><path style="stroke:none;fill-rule:nonzero;fill:#a5c2ee;fill-opacity:1" d="m42.855 70.766 20.442 32.328 160.586-12.86"/><path style="fill:none;stroke-width:5;stroke-linecap:round;stroke-linejoin:round;stroke:#000;stroke-opacity:1;stroke-miterlimit:10" d="m429.972 1292.41 205.09-324.35" transform="matrix(.09967 0 0 -.09967 0 199.58)"/><path style="fill-rule:nonzero;fill:#80447c;fill-opacity:1;stroke-width:5;stroke-linecap:round;stroke-linejoin:round;stroke:#000;stroke-opacity:1;stroke-miterlimit:10" d="M1181.746 777.627 635.062 968.059l40.053-471.789" transform="matrix(.09967 0 0 -.09967 0 199.58)"/><path style="fill-rule:nonzero;fill:#80447c;fill-opacity:1;stroke-width:5;stroke-linecap:round;stroke-linejoin:round;stroke:#000;stroke-opacity:1;stroke-miterlimit:10" d="m675.115 496.27 517.448-196.938-10.817 478.295" transform="matrix(.09967 0 0 -.09967 0 199.58)"/><path style="fill-rule:nonzero;fill:#e79872;fill-opacity:1;stroke-width:5;stroke-linecap:round;stroke-linejoin:round;stroke:#000;stroke-opacity:1;stroke-miterlimit:10" d="m2246.23 1097.078-420.722-265.406-25.161-476.57" transform="matrix(.09967 0 0 -.09967 0 199.58)"/><path style="fill-rule:nonzero;fill:#b87181;fill-opacity:1;stroke-width:5;stroke-linecap:round;stroke-linejoin:round;stroke:#000;stroke-opacity:1;stroke-miterlimit:10" d="m1192.563 299.332 607.784 55.77 25.161 476.57" transform="matrix(.09967 0 0 -.09967 0 199.58)"/><path style="fill-rule:nonzero;fill:#a5c2ee;fill-opacity:1;stroke-width:5;stroke-linecap:round;stroke-linejoin:round;stroke:#000;stroke-opacity:1;stroke-miterlimit:10" d="m1181.746 777.627 643.762 54.045 420.722 265.406" transform="matrix(.09967 0 0 -.09967 0 199.58)"/><path style="stroke:none;fill-rule:nonzero;fill:#a5c2ee;fill-opacity:1" d="m63.297 103.094 54.488 18.98 106.098-31.84"/><path style="fill:none;stroke-width:5;stroke-linecap:round;stroke-linejoin:round;stroke:#000;stroke-opacity:1;stroke-miterlimit:10" d="m635.062 968.06 546.684-190.433" transform="matrix(.09967 0 0 -.09967 0 199.58)"/><path style="fill-rule:nonzero;fill:#b87181;fill-opacity:1;stroke-width:5;stroke-linecap:round;stroke-linejoin:round;stroke:#000;stroke-opacity:1;stroke-miterlimit:10" d="m1825.508 831.672-643.762-54.045 10.817-478.295" transform="matrix(.09967 0 0 -.09967 0 199.58)"/></svg>
